src/scalable/apps/org.xfce.panel.directorymenu.svg

<svg width="64" height="64" version="1.1" viewBox="0 0 16.933 16.933" xmlns="http://www.w3.org/2000/svg" xmlns:xlink="http://www.w3.org/1999/xlink">
 <path d="m7.1442 2.3771-3.7041 0.00103c-0.294 0-0.3952 0.26865-0.53019 0.52969h-0.79271a0.528 0.528 0 0 0-0.53019 0.52813v1.8541h-0.52916c-0.29308 0-0.52863 0.23609-0.52863 0.52916v8.4671c0 0.29308 0.23558 0.52863 0.52863 0.52863h14.818c0.29308 0 0.52863-0.23455 0.52863-0.5276v-9.5249c0-0.294-0.23565-0.53226-0.52863-0.53226h-0.52969v-0.79427a0.528 0.528 0 0 0-0.53019-0.52916h-7.1421c-0.155-0.249-0.23566-0.52969-0.52969-0.52969z" fill="#198ee6" opacity=".6" style="paint-order:markers stroke fill"/>
 <path d="m2.9104 3.7c-0.29327 0-0.52916 0.23589-0.52916 0.52916v1.0624h5.2466l0.31005-0.53122c0.147-0.25299 0.23616-0.52864 0.52916-0.52864h6.0848v-0.00258c0-0.29326-0.23589-0.52916-0.52916-0.52916z" fill="#ffffff" stroke-width="1.3575" style="paint-order:markers stroke fill"/>
 <image x="1.2952" y="4.2302" width="14.287" height="9.7894" image-rendering="optimizeQuality" preserveAspectRatio="none" xlink:href="data:image/png;base64,iVBORw0KGgoAAAANSUhEUgAAADYAAAAlCAYAAAAJBxroAAAACXBIWXMAAA7DAAAOwwHHb6hkAAAA GXRFWHRTb2Z0d2FyZQB3d3cuaW5rc2NhcGUub3Jnm+48GgAAAZ1JREFUWIXt2T9uE0EYhvHfGENA KAiJloI6HbQcAHEneg7DPegQV6BIE/5IOAkxcbw7FN+usxlCgWQ7u9I8zYxmxzvvo2/XK80keyDn fIQPONribVc4xRd8wkd8xjHOZltc6FZyzgd4b7tSJakc2LkY3uLNHta5wU7Fcs7P8A4Hu1znNuY5 5zkO8Rwv8Rqv8AJP8GDfobbBPh7FO6GKTY0qNjWq2NSoYlOjik2NKjY1qtjUqGJTo4pNjSo2NarY 1CjFMtquzYOxYX/Ylv1/zS/533uXY+Xv22KO+WBCiwZrseG/wlV3/a+98Tsmi2x9zrXIvhGcu5Za 4zfOxSnGQgjdN75HthViC5H1HEvh0CL3Yo2QWuBEHMXAT7HFPcaKrUTeY5H5VDg0OjHCdInv4rxJ 1z8UFUvGI9e/V1c4w1eR+RsuhIthxS6EDGH/FA9dv4djoy/GAj9E9qWuYglyzjPcE8c9j/C464+t Wj3Dql3il5C6RJNSajeBO7lecN61M+OT6in/yRu0KaWWInTOeVidMVaq5MY3LaW0+Zb9AaeslJxY pn7KAAAAAElFTkSuQmCC "/>
 <path d="m8.4671 4.2316c-0.293 0-0.38216 0.27564-0.52916 0.52863l-0.31006 0.53122h-6.5701c-0.29308 0-0.52863 0.23609-0.52863 0.52916v8.4671c0 0.29308 0.23557 0.52863 0.52863 0.52863h14.818c0.29308 0 0.52863-0.23454 0.52863-0.5276v-9.5249c0-0.294-0.23564-0.53226-0.52863-0.53226z" fill="#198ee6" opacity=".8" style="paint-order:markers stroke fill"/>
 <rect x="3.704" y="2.64" width="3.175" height=".529" ry=".265" opacity=".25" paint-order="stroke markers fill"/>
 <rect x="10.318" y="4.762" width="4.2333" height=".52916" ry=".26508" opacity=".25" stroke-width="1.0329" style="paint-order:stroke markers fill"/>
 <path transform="scale(.26458)" d="m21 23.004c-1.1077 0-2 0.89233-2 2v3.002h26v-3.002c0-1.1077-0.89233-2-2-2h-22zm1.002 1.9961a1.0016 1.0016 0 0 1 1 1.002 1.0016 1.0016 0 0 1-1 1.002 1.0016 1.0016 0 0 1-1.002-1.002 1.0016 1.0016 0 0 1 1.002-1.002zm-3.002 4.002v5.002h26v-5.002h-26zm3.002 2a1.0016 1.0016 0 0 1 1 1.002 1.0016 1.0016 0 0 1-1 1.002 1.0016 1.0016 0 0 1-1.002-1.002 1.0016 1.0016 0 0 1 1.002-1.002zm-3.002 4.002v5.002h26v-5.002h-26zm3.002 1.9961a1.0016 1.0016 0 0 1 1 1.002 1.0016 1.0016 0 0 1-1 1.002 1.0016 1.0016 0 0 1-1.002-1.002 1.0016 1.0016 0 0 1 1.002-1.002zm-3.002 4.002v5.002h26v-5.002h-26zm3.002 2a1.0016 1.0016 0 0 1 1 1.002 1.0016 1.0016 0 0 1-1 1.002 1.0016 1.0016 0 0 1-1.002-1.002 1.0016 1.0016 0 0 1 1.002-1.002zm-3.002 4.0039v4.002c0 1.1077 0.89233 2 2 2h22c1.1077 0 2-0.89233 2-2v-4.002h-26zm3.002 1.9941a1.0016 1.0016 0 0 1 1 1.002 1.0016 1.0016 0 0 1-1 1.002 1.0016 1.0016 0 0 1-1.002-1.002 1.0016 1.0016 0 0 1 1.002-1.002z" fill="#000000" opacity=".15" style="paint-order:markers stroke fill"/>
</svg>

<svg width="64" height="64" viewBox="0 0 16.933 16.933" xmlns="http://www.w3.org/2000/svg" xmlns:xlink="http://www.w3.org/1999/xlink"><path d="m7.144 2.377-3.704.001c-.294 0-.395.269-.53.53h-.793a.528.528 0 0 0-.53.528V5.29h-.53a.528.528 0 0 0-.528.53v8.466c0 .293.236.529.529.529h14.818a.526.526 0 0 0 .528-.528V4.762a.53.53 0 0 0-.528-.532h-.53v-.794a.528.528 0 0 0-.53-.53H7.674c-.155-.248-.236-.529-.53-.529z" fill="#198ee6" opacity=".6" style="paint-order:markers stroke fill"/><path d="M2.91 3.7a.528.528 0 0 0-.529.53v1.062h5.247l.31-.532c.147-.253.236-.528.53-.528h6.084v-.003a.528.528 0 0 0-.53-.529z" fill="#fff" style="paint-order:markers stroke fill"/><image x="1.295" y="4.23" width="14.287" height="9.789" image-rendering="optimizeQuality" preserveAspectRatio="none" xlink:href="data:image/png;base64,iVBORw0KGgoAAAANSUhEUgAAADYAAAAlCAYAAAAJBxroAAAACXBIWXMAAA7DAAAOwwHHb6hkAAAA GXRFWHRTb2Z0d2FyZQB3d3cuaW5rc2NhcGUub3Jnm+48GgAAAZ1JREFUWIXt2T9uE0EYhvHfGENA KAiJloI6HbQcAHEneg7DPegQV6BIE/5IOAkxcbw7FN+usxlCgWQ7u9I8zYxmxzvvo2/XK80keyDn fIQPONribVc4xRd8wkd8xjHOZltc6FZyzgd4b7tSJakc2LkY3uLNHta5wU7Fcs7P8A4Hu1znNuY5 5zkO8Rwv8Rqv8AJP8GDfobbBPh7FO6GKTY0qNjWq2NSoYlOjik2NKjY1qtjUqGJTo4pNjSo2NarY 1CjFMtquzYOxYX/Ylv1/zS/533uXY+Xv22KO+WBCiwZrseG/wlV3/a+98Tsmi2x9zrXIvhGcu5Za 4zfOxSnGQgjdN75HthViC5H1HEvh0CL3Yo2QWuBEHMXAT7HFPcaKrUTeY5H5VDg0OjHCdInv4rxJ 1z8UFUvGI9e/V1c4w1eR+RsuhIthxS6EDGH/FA9dv4djoy/GAj9E9qWuYglyzjPcE8c9j/C464+t Wj3Dql3il5C6RJNSajeBO7lecN61M+OT6in/yRu0KaWWInTOeVidMVaq5MY3LaW0+Zb9AaeslJxY pn7KAAAAAElFTkSuQmCC"/><path d="M8.467 4.232c-.293 0-.382.275-.53.528l-.31.531h-6.57a.528.528 0 0 0-.528.53v8.467c0 .293.236.528.529.528h14.818a.526.526 0 0 0 .528-.527V4.764a.53.53 0 0 0-.528-.532z" fill="#198ee6" opacity=".8" style="paint-order:markers stroke fill"/><rect x="3.704" y="2.64" width="3.175" height=".529" ry=".265" opacity=".25" paint-order="stroke markers fill"/><rect x="10.318" y="4.762" width="4.233" height=".529" ry=".265" opacity=".25" style="paint-order:stroke markers fill"/><path transform="scale(.26458)" d="M21 23.004c-1.108 0-2 .892-2 2v3.002h26v-3.002c0-1.108-.892-2-2-2H21zM22.002 25a1.002 1.002 0 0 1 1 1.002 1.002 1.002 0 0 1-1 1.002A1.002 1.002 0 0 1 21 26.002 1.002 1.002 0 0 1 22.002 25zM19 29.002v5.002h26v-5.002H19zm3.002 2a1.002 1.002 0 0 1 1 1.002 1.002 1.002 0 0 1-1 1.002A1.002 1.002 0 0 1 21 32.004a1.002 1.002 0 0 1 1.002-1.002zM19 35.004v5.002h26v-5.002H19zM22.002 37a1.002 1.002 0 0 1 1 1.002 1.002 1.002 0 0 1-1 1.002A1.002 1.002 0 0 1 21 38.002 1.002 1.002 0 0 1 22.002 37zM19 41.002v5.002h26v-5.002H19zm3.002 2a1.002 1.002 0 0 1 1 1.002 1.002 1.002 0 0 1-1 1.002A1.002 1.002 0 0 1 21 44.004a1.002 1.002 0 0 1 1.002-1.002zM19 47.006v4.002c0 1.108.892 2 2 2h22c1.108 0 2-.892 2-2v-4.002H19zM22.002 49a1.002 1.002 0 0 1 1 1.002 1.002 1.002 0 0 1-1 1.002A1.002 1.002 0 0 1 21 50.002 1.002 1.002 0 0 1 22.002 49z" opacity=".15" style="paint-order:markers stroke fill"/></svg>
